www/assets/icons/unpublished.svg

<svg width="24" height="24" viewBox="0 0 24 24" xmlns="http://www.w3.org/2000/svg" fill='currentColor'><path d="M21.495 20.8848L3.11501 2.50482L1.69501 3.91482L3.96501 6.18482C2.91501 7.76482 2.30501 9.65482 2.30501 11.6948C2.30501 17.2148 6.78501 21.6948 12.305 21.6948C14.345 21.6948 16.235 21.0848 17.815 20.0348L20.085 22.3048L21.495 20.8848ZM10.895 16.2948L6.65501 12.0548L8.06501 10.6448L10.895 13.4748L11.075 13.2948L12.485 14.7048L10.895 16.2948ZM13.895 10.4548L6.79501 3.35482C8.37501 2.30482 10.265 1.69482 12.305 1.69482C17.825 1.69482 22.305 6.17482 22.305 11.6948C22.305 13.7348 21.695 15.6248 20.645 17.2048L15.305 11.8648L17.955 9.21482L16.545 7.80482L13.895 10.4548Z"/></svg>

<svg xmlns="http://www.w3.org/2000/svg" width="24" height="24" viewBox="0 0 24 24" fill='currentColor'><path d="M21.495 20.885 3.115 2.505l-1.42 1.41 2.27 2.27a9.9 9.9 0 0 0-1.66 5.51c0 5.52 4.48 10 10 10 2.04 0 3.93-.61 5.51-1.66l2.27 2.27zm-10.6-4.59-4.24-4.24 1.41-1.41 2.83 2.83.18-.18 1.41 1.41zm3-5.84-7.1-7.1a9.9 9.9 0 0 1 5.51-1.66c5.52 0 10 4.48 10 10 0 2.04-.61 3.93-1.66 5.51l-5.34-5.34 2.65-2.65-1.41-1.41z"/></svg>
